// NORMAL BLEND W/ SHADE
shader_type canvas_item;
render_mode blend_mul;
uniform int mask_type : hint_range(1,6) = 3;
uniform float rotation_speed : hint_range(1,10) = 0.0;
void vertex() {
}
void fragment() {
}